svg/regular/bx-layer-plus.svg

<svg xmlns="http://www.w3.org/2000/svg" width="24" height="24"><path d="m21.484 11.125-9.022-5a1 1 0 0 0-.968-.001l-8.978 4.96a1 1 0 0 0-.003 1.749l9.022 5.04a.995.995 0 0 0 .973.001l8.978-5a1 1 0 0 0-.002-1.749zm-9.461 4.73-6.964-3.89 6.917-3.822 6.964 3.859-6.917 3.853z"/><path d="M12 22a.994.994 0 0 0 .485-.126l9-5-.971-1.748L12 19.856l-8.515-4.73-.971 1.748 9 5A1 1 0 0 0 12 22zm8-20h-2v2h-2v2h2v2h2V6h2V4h-2z"/></svg>

<svg xmlns="http://www.w3.org/2000/svg" width="24" height="24" viewBox="0 0 24 24"><path d="M21.484,11.125l-9.022-5c-0.301-0.167-0.667-0.167-0.968-0.001l-8.978,4.96C2.198,11.26,2.001,11.594,2,11.958 s0.195,0.698,0.513,0.875l9.022,5.04C11.687,17.958,11.854,18,12.022,18s0.335-0.042,0.486-0.126l8.978-5 C21.804,12.697,22,12.362,22,11.999S21.803,11.301,21.484,11.125z M12.023,15.855l-6.964-3.89l6.917-3.822l6.964,3.859 L12.023,15.855z"/><path d="M12 22c.167 0 .335-.042.485-.126l9-5-.971-1.748L12 19.856l-8.515-4.73-.971 1.748 9 5C11.665 21.958 11.833 22 12 22zM20 2L18 2 18 4 16 4 16 6 18 6 18 8 20 8 20 6 22 6 22 4 20 4z"/></svg>
